X: 173
M: 6/8
L: 1/8
K: C
c/B/ |\
cGF EFG | ABc BAG | cde def | ece d2c/B/ |\
cGF EFG | ABc BAG | cde def | ecc c2 :|
|: c |\
ece ege | dBd dgB | cBc ABc | BGG G2G |\

